Speka/assets/images/Logo-Footer.svg

<svg width="216" height="88" viewBox="0 0 216 88" fill="none" xmlns="http://www.w3.org/2000/svg">
<path fill-rule="evenodd" clip-rule="evenodd" d="M18.5122 7.51834C19.6965 8.31101 20.9181 9.07811 22.1273 9.83243C22.0525 10.1265 21.9155 10.3949 22.0401 10.5867C22.2645 10.8296 22.6011 10.6123 23.0124 10.7018C23.2867 10.7657 24.6704 12.1976 24.9447 12.4405C25.568 12.3383 25.6552 12.2999 25.7051 11.7757C25.7425 11.3794 25.755 10.9575 25.7675 10.5612C26.8271 10.3055 28.3978 10.0242 29.5821 9.80683C30.1431 9.70455 33.2097 9.07809 33.3718 9.09087C33.7707 9.10366 35.5284 10.2159 35.6531 10.8168C35.9398 12.1465 36.0894 13.5656 36.3637 14.908C37.523 14.6907 37.8346 14.4861 38.1338 13.2204L39.2682 8.65615C39.6546 7.23701 39.4178 7.05803 40.066 6.8279C42.2476 5.98409 44.7907 4.78231 46.9473 3.49102C48.0693 2.67278 48.2937 2.34036 48.2812 1.8801C48.194 1.38148 48.0942 1.10026 47.5707 0.97241C47.3089 0.908485 46.9972 0.895666 46.6855 0.85731C46.0498 0.7806 45.5636 0.53771 44.9652 0.56328C43.569 0.601635 42.9208 1.34314 41.3002 1.9696L37.6351 3.38872C37.2487 3.46543 20.7312 0.00073535 20.5317 0.00073535C20.058 -0.0120497 19.9084 0.141389 19.5593 0.49937C19.4347 0.652791 19.31 0.79342 19.2228 0.97241C19.7339 1.31761 26.4905 4.01518 27.6499 4.50101C27.974 4.62886 29.819 5.86907 30.0558 6.16313C29.5821 6.3549 28.4103 6.91738 27.9241 7.13473C26.8021 7.56942 26.69 7.81237 25.9046 7.09641C25.6303 6.84071 25.4184 6.6617 25.1317 6.43156C23.6856 5.30648 23.561 5.17862 22.3518 5.5366L22.9626 7.88908C21.9903 7.85072 20.4569 6.8535 19.3599 6.943C18.9984 6.96857 18.7615 7.23707 18.5122 7.51834Z" fill="#F58220"/>
<path fill-rule="evenodd" clip-rule="evenodd" d="M194.783 17.4777L178.377 61.0619H173.565L192.963 9.5127H196.615L216 61.0619H211.188L194.783 17.4777Z" fill="#F58220"/>
<path fill-rule="evenodd" clip-rule="evenodd" d="M146.015 37.5631H136.454V61.0619H131.929V9.5127H136.454V32.9349H145.916L161.748 9.5127H167.27L149.917 35.185L169.327 61.0619H163.63L146.015 37.5631Z" fill="#F58220"/>
<path fill-rule="evenodd" clip-rule="evenodd" d="M88.6587 56.4209H122.766V61.0619H88.6587V56.4209Z" fill="#F58220"/>
<path fill-rule="evenodd" clip-rule="evenodd" d="M120.21 32.999V37.5633H88.6587V32.999H120.21Z" fill="#F58220"/>
<path fill-rule="evenodd" clip-rule="evenodd" d="M122.342 9.5127V14.1409H88.6587V9.5127H122.342Z" fill="#F58220"/>
<path fill-rule="evenodd" clip-rule="evenodd" d="M51.946 41.8717V61.062H47.4956V37.2307H65.746C72.4901 37.2307 77.8256 32.871 77.8256 25.6858C77.8256 18.36 72.6397 14.0643 65.746 14.0643H47.4956V9.5H65.746C75.0083 9.5 82.5502 15.8541 82.5502 25.6858C82.5502 35.5686 75.0581 41.8717 65.746 41.8717H51.946Z" fill="#F58220"/>
<path fill-rule="evenodd" clip-rule="evenodd" d="M20.0579 32.8198C25.9917 34.2134 35.4784 36.732 37.4356 43.5464C37.7473 44.646 37.8719 45.7838 37.8719 46.9217C37.8719 50.4504 36.4757 53.9279 34.0947 56.4593C30.4172 60.3843 25.0318 61.6117 19.8958 61.6117C19.4346 61.6117 18.9734 61.6117 18.5246 61.6117H16.8416L19.0356 56.9707H19.6964C19.7712 56.9707 19.8335 56.9707 19.9083 56.9707C26.0541 56.9707 33.3716 54.3882 33.3716 46.9089C33.3716 45.6943 33.0725 44.5564 32.4367 43.5208C29.9809 39.5447 23.2492 38.2279 19.0731 37.3073C16.5175 36.7448 13.962 36.1055 11.5186 35.185C6.34521 33.2289 1.4585 29.8792 1.4585 23.6273C1.4585 15.5344 7.54189 10.3309 14.9592 9.23139L15.3956 9.16748L21.1923 13.6039L18.0509 13.6294C12.1045 13.6678 5.9089 16.7362 5.9089 23.6273C5.9089 24.6501 6.14572 25.6218 6.65683 26.504C8.92566 30.5568 15.9565 31.8609 20.0579 32.8198Z" fill="#F58220"/>
<path fill-rule="evenodd" clip-rule="evenodd" d="M4.59999 48.1746C5.52248 51.3708 7.99079 53.7105 10.858 55.1296L11.8179 55.6027L9.8732 59.7322L8.91328 59.272C4.9366 57.367 1.60819 53.9406 0.29925 49.5809L0 48.5709L4.28834 47.1006L4.59999 48.1746Z" fill="#F58220"/>
<path fill-rule="evenodd" clip-rule="evenodd" d="M190.582 41.6287V37.0645H198.996V41.6287H190.582Z" fill="#F58220"/>
<path fill-rule="evenodd" clip-rule="evenodd" d="M214.243 84.4971H215.826V74.512H212.784C212.011 74.512 211.263 74.7165 210.677 75.2663C210.079 75.8161 209.854 76.5703 209.854 77.3758C209.854 78.079 210.079 78.7054 210.565 79.2168C210.927 79.5876 211.363 79.8433 211.849 79.984L212.086 80.0479L209.231 84.4971H210.989L213.682 80.2141H214.243V84.4971ZM214.243 75.9695V78.7566H213.632C213.395 78.7566 213.17 78.7566 212.946 78.7566C212.709 78.7438 212.472 78.731 212.235 78.6799C211.999 78.6287 211.812 78.4625 211.662 78.2708C211.463 78.0278 211.4 77.7338 211.4 77.427C211.4 77.1329 211.438 76.8005 211.6 76.5576C211.737 76.353 211.911 76.1996 212.136 76.1229C212.36 76.0334 212.647 76.0206 212.884 76.0079C213.133 75.9951 213.382 75.9951 213.619 75.9951H214.243V75.9695ZM205.541 74.512V84.4971H207.124V74.512H205.541ZM206.327 70.5742C206.002 70.5742 205.728 70.702 205.504 70.9322C205.279 71.1623 205.155 71.4563 205.155 71.7887C205.155 72.1211 205.279 72.4025 205.504 72.6454C205.728 72.8755 206.002 73.0033 206.327 73.0033C206.651 73.0033 206.925 72.8755 207.162 72.6454C207.386 72.4153 207.511 72.1211 207.511 71.7887C207.511 71.4563 207.399 71.1623 207.162 70.9322C206.925 70.6892 206.651 70.5742 206.327 70.5742ZM202.35 86.0057H203.858V82.9373H201.814V74.4992H200.231V82.9373H195.169V74.4992H193.586V84.4843H202.337V86.0057H202.35ZM189.497 84.4971H191.081V74.512H189.497V78.3219H184.411V74.512H182.828V84.4971H184.411V79.8689H189.497V84.4971ZM180.796 79.7922V79.6004C180.784 78.3603 180.472 77.184 179.724 76.2124C178.714 74.9083 177.368 74.2818 175.735 74.2818C174.152 74.2818 172.843 74.8955 171.87 76.174C171.11 77.1584 170.736 78.2835 170.736 79.5365C170.736 80.9045 171.21 82.1062 172.082 83.1291C173.055 84.2797 174.363 84.7272 175.822 84.7272C176.47 84.7272 177.131 84.6378 177.742 84.3948C178.315 84.1775 178.826 83.8451 179.275 83.4232C179.774 82.9501 180.16 82.3748 180.472 81.7483L180.559 81.5821L179.213 80.8534L179.125 81.0068C178.864 81.467 178.527 81.9657 178.141 82.3109C177.817 82.5921 177.443 82.7967 177.044 82.9501C176.62 83.1035 176.171 83.193 175.71 83.193C174.787 83.193 173.989 82.8734 173.354 82.183C172.768 81.5693 172.469 80.8278 172.381 79.984L172.356 79.7794H180.796V79.7922ZM179.038 78.3347H172.518L172.606 78.0917C172.805 77.5676 173.079 77.069 173.491 76.6982C174.139 76.1101 174.887 75.8416 175.747 75.8416C176.271 75.8416 176.782 75.9567 177.268 76.1868C177.717 76.4041 178.116 76.6854 178.427 77.0818C178.664 77.3886 178.826 77.7338 178.951 78.1045L179.038 78.3347ZM169.95 75.9823V74.512H164.827V84.4971H166.41V75.9823H169.95ZM160.713 84.4971H162.296V74.512H160.713V75.88L160.414 75.5859C160.102 75.2663 159.741 74.9978 159.354 74.7933C158.681 74.4353 157.946 74.269 157.185 74.269C155.801 74.269 154.617 74.7932 153.645 75.7905C152.672 76.8005 152.174 78.0406 152.174 79.4598C152.174 80.9045 152.648 82.1447 153.632 83.1802C154.592 84.1903 155.777 84.7145 157.16 84.7145C157.908 84.7145 158.631 84.561 159.292 84.2286C159.703 84.0241 160.077 83.7556 160.426 83.436L160.726 83.1674V84.4971H160.713ZM157.272 75.8544C158.245 75.8544 159.08 76.1996 159.766 76.9155C160.464 77.6443 160.775 78.5392 160.775 79.5493C160.775 80.2013 160.638 80.8406 160.327 81.4159C160.015 81.9784 159.579 82.4004 159.043 82.72C158.494 83.0396 157.896 83.2058 157.272 83.2058C156.649 83.2058 156.076 83.0396 155.54 82.72C154.991 82.3876 154.567 81.9273 154.256 81.3648C153.944 80.8022 153.77 80.1885 153.77 79.5365C153.77 78.8844 153.932 78.2707 154.243 77.6954C154.555 77.1329 154.979 76.6726 155.527 76.353C156.063 76.0078 156.649 75.8544 157.272 75.8544ZM143.797 84.4971H145.38V74.512H143.797V75.88L143.497 75.5859C143.186 75.2663 142.824 74.9978 142.438 74.7933C141.765 74.4353 141.029 74.269 140.269 74.269C138.885 74.269 137.701 74.7932 136.728 75.7905C135.756 76.8005 135.257 78.0406 135.257 79.4598C135.257 80.9045 135.731 82.1447 136.716 83.1802C137.676 84.1903 138.86 84.7145 140.244 84.7145C140.992 84.7145 141.715 84.561 142.388 84.2286C142.799 84.0241 143.173 83.7556 143.522 83.436L143.822 83.1674V84.4971H143.797ZM140.368 75.8544C141.341 75.8544 142.176 76.1996 142.862 76.9155C143.56 77.6443 143.871 78.5392 143.871 79.5493C143.871 80.2013 143.734 80.8406 143.423 81.4159C143.111 81.9784 142.687 82.4004 142.139 82.72C141.59 83.0396 140.992 83.2058 140.368 83.2058C139.745 83.2058 139.172 83.0396 138.636 82.72C138.087 82.3876 137.663 81.9273 137.352 81.3648C137.04 80.8022 136.866 80.1885 136.866 79.5365C136.866 78.8844 137.028 78.2707 137.339 77.6954C137.651 77.1329 138.075 76.6726 138.623 76.353C139.147 76.0078 139.733 75.8544 140.368 75.8544ZM131.792 84.4971H133.375V74.512H131.792V78.3219H126.706V74.512H125.122V84.4971H126.706V79.8689H131.792V84.4971ZM121.059 84.4971H122.642V74.512H121.059V78.7183H119.488C119.051 78.7183 118.428 78.6671 118.079 78.3603C117.855 78.1685 117.767 77.6826 117.73 77.3886C117.693 77.069 117.68 76.7493 117.68 76.4297V74.4992H116.122V77.0946C116.122 77.9128 116.309 78.7311 116.87 79.3447C117.456 79.984 118.316 80.163 119.139 80.163H121.059V84.4971ZM106.959 74.512H105.376V84.4971H105.788L112.345 77.721V84.4971H113.928V74.512H113.566L106.959 81.3392V74.512ZM103.706 75.9695V74.512H97.1734V75.9695H99.6418V84.4971H101.225V75.9695H103.706ZM96.1512 76.7621L96.0515 76.5959C95.7648 76.1101 95.4157 75.6882 94.9794 75.3558C94.5182 75.0106 93.9946 74.7549 93.4586 74.5759C92.8602 74.3713 92.2369 74.2818 91.6011 74.2818C90.6288 74.2818 89.6813 74.4992 88.8211 74.9723C87.9984 75.4325 87.3377 76.0717 86.864 76.9027C86.3903 77.721 86.1535 78.6288 86.1535 79.5877C86.1535 81.0196 86.6645 82.2469 87.6743 83.2442C88.7339 84.2925 90.0429 84.74 91.5014 84.74C92.4239 84.74 93.3339 84.5738 94.1691 84.1519C94.942 83.7684 95.5778 83.2058 96.0515 82.4771L96.1637 82.3109L94.9046 81.4542L94.7925 81.5949C93.9572 82.6561 92.8851 83.2058 91.5637 83.2058C90.8781 83.2058 90.2174 83.0652 89.619 82.72C89.0456 82.4004 88.5844 81.9401 88.2602 81.3648C87.9361 80.7895 87.7616 80.163 87.7616 79.4981C87.7616 78.4753 88.1231 77.6187 88.8336 76.9027C89.5941 76.1484 90.5165 75.8288 91.5512 75.8288C92.8851 75.8288 93.9822 76.3275 94.7925 77.427L94.8921 77.5676L96.1512 76.7621ZM77.3399 74.512H75.7567V84.4971H76.1681L82.7253 77.721V84.4971H84.3084V74.512H83.9469L77.3399 81.3392V74.512ZM65.3351 74.512H63.7643V88.0001H65.3476V83.1674L65.6467 83.436C65.9833 83.7556 66.3573 84.0241 66.7686 84.2286C67.4418 84.5738 68.1649 84.7272 68.9004 84.7272C70.2841 84.7272 71.4684 84.2031 72.4283 83.193C73.4131 82.1575 73.8868 80.9173 73.8868 79.4726C73.8868 78.0406 73.3882 76.8133 72.4158 75.8033C71.4435 74.7932 70.2592 74.2818 68.863 74.2818C68.1026 74.2818 67.3795 74.4353 66.7063 74.8061C66.3199 75.0106 65.9584 75.2919 65.6467 75.5987L65.3476 75.8928V74.512H65.3351ZM68.7757 75.8544C69.399 75.8544 69.9849 76.0078 70.5334 76.3402C71.0819 76.6598 71.5058 77.1202 71.8175 77.6827C72.1291 78.258 72.2912 78.8717 72.2912 79.5237C72.2912 80.1758 72.1166 80.7894 71.805 81.352C71.4933 81.9273 71.0695 82.3876 70.5209 82.7072C69.9849 83.0268 69.4115 83.193 68.7882 83.193C68.1524 83.193 67.554 83.0268 67.0055 82.7072C66.457 82.3876 66.0207 81.9656 65.7215 81.4031C65.4099 80.8278 65.2728 80.2013 65.2728 79.5365C65.2728 78.5137 65.5844 77.6315 66.2825 76.9027C66.9682 76.1996 67.8034 75.8544 68.7757 75.8544ZM54.6516 74.512H52.9811L56.933 83.5127L55.0131 88.0001H56.7086L62.4554 74.512H60.76L57.7432 81.5821L54.6516 74.512ZM51.585 75.9695V74.512H45.0527V75.9695H47.521V84.4971H49.1042V75.9695H51.585Z" fill="white"/>
</svg>

<svg width="216" height="88" fill="none" xmlns="http://www.w3.org/2000/svg"><path fill-rule="evenodd" clip-rule="evenodd" d="M18.512 7.518c1.184.793 2.406 1.56 3.615 2.314-.075.294-.211.563-.087.755.225.243.561.025.972.115.275.064 1.658 1.496 1.933 1.739.623-.103.71-.141.76-.665.038-.397.05-.819.063-1.215 1.06-.255 2.63-.537 3.814-.754.561-.102 3.628-.729 3.79-.716.399.013 2.156 1.125 2.281 1.726.287 1.33.436 2.749.71 4.091 1.16-.217 1.472-.422 1.77-1.688l1.135-4.564c.387-1.419.15-1.598.798-1.828 2.182-.844 4.725-2.046 6.881-3.337 1.122-.818 1.347-1.15 1.334-1.61-.087-.5-.187-.78-.71-.909-.262-.064-.574-.076-.886-.115-.635-.076-1.121-.32-1.72-.294-1.396.039-2.044.78-3.665 1.407l-3.665 1.419C37.25 3.465 20.731 0 20.532 0c-.474-.013-.624.14-.973.498-.124.154-.249.294-.336.473.51.346 7.268 3.043 8.427 3.529.324.128 2.169 1.368 2.406 1.662-.474.192-1.646.754-2.132.972-1.122.434-1.234.677-2.02-.039a12.62 12.62 0 00-.772-.664c-1.446-1.126-1.571-1.253-2.78-.895l.61 2.352c-.972-.038-2.505-1.035-3.602-.946-.362.026-.598.294-.848.575zm176.271 9.96l-16.406 43.584h-4.812l19.398-51.55h3.652L216 61.063h-4.812l-16.405-43.584zm-48.768 20.085h-9.561v23.499h-4.525V9.512h4.525v23.423h9.462l15.832-23.422h5.522l-17.353 25.672 19.41 25.877h-5.697l-17.615-23.499zM88.659 56.42h34.107v4.642H88.659V56.42zm31.551-23.421v4.564H88.659V33h31.551zm2.132-23.486v4.628H88.659V9.513h33.683zM51.946 41.872v19.19h-4.45V37.231h18.25c6.744 0 12.08-4.36 12.08-11.545 0-7.326-5.186-11.622-12.08-11.622h-18.25V9.5h18.25c9.262 0 16.804 6.354 16.804 16.186 0 9.883-7.492 16.186-16.804 16.186h-13.8zM20.058 32.82c5.934 1.393 15.42 3.912 17.378 10.726.311 1.1.436 2.238.436 3.376 0 3.528-1.396 7.006-3.777 9.537-3.678 3.925-9.063 5.153-14.2 5.153h-3.053l2.194-4.641h.872c6.146 0 13.464-2.583 13.464-10.062 0-1.215-.3-2.353-.935-3.388-2.456-3.976-9.188-5.293-13.364-6.214-2.556-.562-5.111-1.202-7.554-2.122-5.174-1.956-10.06-5.306-10.06-11.558 0-8.093 6.083-13.296 13.5-14.396l.437-.064 5.796 4.437-3.141.025c-5.946.039-12.142 3.107-12.142 9.998 0 1.023.237 1.995.748 2.877 2.269 4.053 9.3 5.357 13.4 6.316zM4.6 48.175c.922 3.196 3.39 5.536 6.258 6.955l.96.473-1.945 4.13-.96-.461C4.937 57.367 1.608 53.941.3 49.581L0 48.57l4.288-1.47.312 1.074z" fill="#F58220"/><path fill-rule="evenodd" clip-rule="evenodd" d="M190.582 41.629v-4.564h8.414v4.564h-8.414z" fill="#F58220"/><path fill-rule="evenodd" clip-rule="evenodd" d="M214.243 84.497h1.583v-9.985h-3.042c-.773 0-1.521.204-2.107.754-.598.55-.823 1.304-.823 2.11 0 .703.225 1.33.711 1.84.362.372.798.627 1.284.768l.237.064-2.855 4.45h1.758l2.693-4.284h.561v4.283zm0-8.528v2.788h-1.297c-.237-.013-.474-.026-.711-.077-.236-.051-.423-.218-.573-.41-.199-.242-.262-.536-.262-.843 0-.294.038-.627.2-.87.137-.204.311-.357.536-.434.224-.09.511-.102.748-.115.249-.013.498-.013.735-.013h.624v-.026zm-8.702-1.457v9.985h1.583v-9.985h-1.583zm.786-3.938c-.325 0-.599.128-.823.358a1.2 1.2 0 00-.349.857c0 .332.124.614.349.856.224.23.498.358.823.358.324 0 .598-.127.835-.358.224-.23.349-.524.349-.856 0-.333-.112-.627-.349-.857a1.116 1.116 0 00-.835-.358zm-3.977 15.432h1.508v-3.069h-2.044V74.5h-1.583v8.438h-5.062V74.5h-1.583v9.985h8.751v1.522h.013zm-12.853-1.509h1.584v-9.985h-1.584v3.81h-5.086v-3.81h-1.583v9.985h1.583V79.87h5.086v4.628zm-8.701-4.705V79.6c-.012-1.24-.324-2.416-1.072-3.388-1.01-1.304-2.356-1.93-3.989-1.93-1.583 0-2.892.614-3.865 1.892-.76.984-1.134 2.11-1.134 3.362 0 1.368.474 2.57 1.346 3.593.973 1.15 2.281 1.598 3.74 1.598.648 0 1.309-.09 1.92-.332a4.635 4.635 0 001.533-.972c.499-.473.885-1.048 1.197-1.675l.087-.166-1.346-.729-.088.154c-.261.46-.598.959-.984 1.304a3.654 3.654 0 01-1.097.64 3.92 3.92 0 01-1.334.242c-.923 0-1.721-.32-2.356-1.01-.586-.614-.885-1.355-.973-2.199l-.025-.205h8.44v.013zm-1.758-1.457h-6.52l.088-.243c.199-.524.473-1.023.885-1.394.648-.588 1.396-.856 2.256-.856.524 0 1.035.115 1.521.345.449.217.848.498 1.159.895.237.307.399.652.524 1.023l.087.23zm-9.088-2.353v-1.47h-5.123v9.985h1.583v-8.515h3.54zm-9.237 8.515h1.583v-9.985h-1.583v1.368l-.299-.294a4.285 4.285 0 00-1.06-.793 4.571 4.571 0 00-2.169-.524c-1.384 0-2.568.524-3.54 1.521-.973 1.01-1.471 2.25-1.471 3.67 0 1.445.474 2.685 1.458 3.72.96 1.01 2.145 1.534 3.528 1.534a4.71 4.71 0 002.132-.485 4.937 4.937 0 001.134-.793l.3-.269v1.33h-.013zm-3.441-8.643c.973 0 1.808.346 2.494 1.061.698.73 1.009 1.624 1.009 2.634 0 .652-.137 1.292-.448 1.867a3.445 3.445 0 01-1.284 1.304 3.488 3.488 0 01-1.771.486 3.319 3.319 0 01-1.732-.486 3.572 3.572 0 01-1.284-1.355 3.737 3.737 0 01-.486-1.828c0-.653.162-1.266.473-1.842a3.462 3.462 0 011.284-1.342 3.152 3.152 0 011.745-.499zm-13.475 8.643h1.583v-9.985h-1.583v1.368l-.3-.294a4.28 4.28 0 00-1.059-.793 4.574 4.574 0 00-2.169-.524c-1.384 0-2.568.524-3.541 1.521-.972 1.01-1.471 2.25-1.471 3.67 0 1.445.474 2.685 1.459 3.72.96 1.01 2.144 1.534 3.528 1.534.748 0 1.471-.153 2.144-.485a4.937 4.937 0 001.134-.793l.3-.269v1.33h-.025zm-3.429-8.643c.973 0 1.808.346 2.494 1.061.698.73 1.009 1.624 1.009 2.634 0 .652-.137 1.292-.448 1.867a3.36 3.36 0 01-1.284 1.304 3.488 3.488 0 01-1.771.486 3.319 3.319 0 01-1.732-.486 3.572 3.572 0 01-1.284-1.355 3.737 3.737 0 01-.486-1.828c0-.653.162-1.266.473-1.842a3.462 3.462 0 011.284-1.342c.524-.345 1.11-.499 1.745-.499zm-8.576 8.643h1.583v-9.985h-1.583v3.81h-5.086v-3.81h-1.584v9.985h1.584V79.87h5.086v4.628zm-10.733 0h1.583v-9.985h-1.583v4.206h-1.571c-.437 0-1.06-.05-1.409-.358-.224-.192-.312-.677-.349-.971-.037-.32-.05-.64-.05-.96V74.5h-1.558v2.596c0 .818.187 1.636.748 2.25.586.639 1.446.818 2.269.818h1.92v4.334zm-14.1-9.985h-1.583v9.985h.412l6.557-6.776v6.776h1.583v-9.985h-.362l-6.607 6.827v-6.827zm-3.253 1.457v-1.457h-6.533v1.457h2.469v8.528h1.583V75.97h2.481zm-7.555.793l-.1-.166a4.235 4.235 0 00-1.072-1.24 5.383 5.383 0 00-1.52-.78 5.709 5.709 0 00-1.858-.294c-.972 0-1.92.217-2.78.69a5.043 5.043 0 00-1.957 1.93 5.299 5.299 0 00-.71 2.686c0 1.432.51 2.659 1.52 3.656 1.06 1.049 2.369 1.496 3.827 1.496.923 0 1.833-.166 2.668-.588a4.718 4.718 0 001.883-1.675l.112-.166-1.26-.857-.111.14c-.836 1.062-1.908 1.612-3.23 1.612-.685 0-1.346-.14-1.944-.486a3.505 3.505 0 01-1.359-1.355 3.764 3.764 0 01-.498-1.867c0-1.023.361-1.88 1.072-2.595.76-.755 1.682-1.074 2.717-1.074 1.334 0 2.431.499 3.242 1.598l.1.14 1.258-.805zm-18.811-2.25h-1.583v9.985h.411l6.557-6.776v6.776h1.583v-9.985h-.361l-6.607 6.827v-6.827zm-12.005 0h-1.57V88h1.583v-4.833l.299.269c.336.32.71.588 1.122.793a4.626 4.626 0 002.131.498c1.384 0 2.568-.524 3.528-1.534.985-1.035 1.459-2.276 1.459-3.72 0-1.432-.499-2.66-1.471-3.67-.972-1.01-2.157-1.521-3.553-1.521-.76 0-1.484.153-2.157.524a4.632 4.632 0 00-1.06.793l-.298.294v-1.381h-.013zm3.44 1.342c.624 0 1.21.154 1.758.486.549.32.973.78 1.284 1.343a3.741 3.741 0 01-.012 3.67c-.312.574-.735 1.035-1.284 1.354a3.32 3.32 0 01-1.733.486 3.497 3.497 0 01-1.782-.486c-.549-.32-.985-.741-1.284-1.304-.312-.575-.45-1.202-.45-1.867 0-1.022.312-1.904 1.01-2.633a3.354 3.354 0 012.494-1.049zm-14.123-1.342h-1.67l3.951 9L55.013 88h1.696l5.746-13.488H60.76l-3.017 7.07-3.091-7.07zm-3.067 1.457v-1.457h-6.532v1.457h2.468v8.528h1.583V75.97h2.481z" fill="#fff"/></svg>
